X:458
M:C
L:1/8
K:G
f|g<d d>e =f>ga>g|=f<d c>_B A<F F>^f|g<d d>e g>ab>a|
g<d d>f g/f/g/a/ gb|g<d d>e =f>ga>g|=f>dc>_B A<F Fe/f/|
g>e=f>d e>cd>B|A>g f<a g<GG||

